X:168
T:Merry Pair, The
M:6/8
L:1/8
B:Thompson's Compleat Collection of 200 Favourite Country Dances, vol. 2 (London, 1765)
Z:Transcribed and edited by Flynn Titford-Mock, 2007
Z:abc's:AK/Fiddler's Companion
K:D
D3 FDF | AFA d3 | "tr"A3 AFD | "tr"E3 D3 | D3 FDF | AFA d3 | "tr"c3 ecA | "tr"B3 A3 :|
|: A3 cAc | ece g3 | "tr"f3 afd | efd cBA | "tr"B3 BdB | "tr"A3 AdF | G2B AFD | E3 D3 :|

